.gitbook/assets/TrunkYaml.svg

<svg xmlns="http://www.w3.org/2000/svg" width="404" height="251" fill="none" viewBox="0 0 404 251"><path fill="#FC6469" d="M0 0h404v251H0V0Z"/><g fill="#280001" clip-path="url(#a)"><path d="M202 172v-9.998c19.851 0 36.001-16.15 36.001-36.001 0-19.852-16.15-36.002-36.001-36.002-19.852 0-36.002 16.15-36.002 36.002H156C156 100.636 176.636 80 202 80s46 20.636 46 46.001C248 151.364 227.364 172 202 172Z"/><path d="M179.665 126.724h-9.999c0-18.11 14.505-32.843 32.333-32.843v10.156c-12.315 0-22.334 10.177-22.334 22.687Z"/><path d="M220.667 126.725h-9.998c0-4.855-3.888-8.805-8.668-8.805-4.779 0-8.668 3.95-8.668 8.805h-9.999c0-10.455 8.375-18.96 18.667-18.96 10.292 0 18.666 8.505 18.666 18.96Z"/></g><defs><clipPath id="a"><path fill="#fff" d="M156 80h92v92h-92z"/></clipPath></defs></svg>

<svg width="404" height="251" viewBox="0 0 404 251" fill="none" xmlns="http://www.w3.org/2000/svg">
<path d="M0 0L404 0L404 251L0 251L0 0Z" fill="#FC6469"/>
<g clip-path="url(#clip0_1041_793)">
<path d="M202 172V162.002C221.851 162.002 238.001 145.852 238.001 126.001C238.001 106.149 221.851 89.9988 202 89.9988C182.148 89.9988 165.998 106.149 165.998 126.001H156C156 100.636 176.636 80 202 80C227.364 80 248 100.636 248 126.001C248 151.364 227.364 172 202 172H202Z" fill="#280001"/>
<path d="M179.665 126.724H169.666C169.666 108.614 184.171 93.8809 201.999 93.8809V104.037C189.684 104.037 179.665 114.214 179.665 126.724Z" fill="#280001"/>
<path d="M220.667 126.725H210.669C210.669 121.87 206.781 117.92 202.001 117.92C197.222 117.92 193.333 121.87 193.333 126.725H183.334C183.334 116.27 191.709 107.765 202.001 107.765C212.293 107.765 220.667 116.27 220.667 126.725Z" fill="#280001"/>
</g>
<defs>
<clipPath id="clip0_1041_793">
<rect width="92" height="92" fill="white" transform="translate(156 80)"/>
</clipPath>
</defs>
</svg>
